Yaru++/apps/scalable/org.gnome.Boxes.svg

<svg enable-background="new" height="256" viewBox="0 0 256 256" width="256" xmlns="http://www.w3.org/2000/svg" xmlns:xlink="http://www.w3.org/1999/xlink">
  <linearGradient id="linearGradient4358" gradientUnits="userSpaceOnUse" x1="88" x2="488" y1="88" y2="488">
    <stop offset="0" stop-opacity=".588235"/>
    <stop offset="1" stop-opacity=".205556"/>
  </linearGradient>
  <filter id="filter4380" color-interpolation-filters="sRGB" height="1.088" width="1.106" x="-.05" y="-.04">
    <feGaussianBlur stdDeviation="8.48"/>
  </filter>
  <filter id="filter4346" color-interpolation-filters="sRGB" height="1.022" width="1.026" x="-.01" y="-.01">
    <feGaussianBlur stdDeviation="2.12"/>
  </filter>
  <linearGradient id="a">
    <stop offset="0" stop-color="#fff"/>
    <stop offset=".4" stop-color="#fff"/>
    <stop offset="1" stop-color="#f6f5f4"/>
  </linearGradient>
  <radialGradient id="i" cx="44.001" cy="250" gradientUnits="userSpaceOnUse" r="8" xlink:href="#a"/>
  <radialGradient id="h" cx="44.001" cy="210" gradientUnits="userSpaceOnUse" r="8" xlink:href="#a"/>
  <radialGradient id="g" cx="20.002" cy="272" gradientUnits="userSpaceOnUse" r="12" xlink:href="#a"/>
  <radialGradient id="f" cx="20.002" cy="184" gradientUnits="userSpaceOnUse" r="12" xlink:href="#a"/>
  <radialGradient id="e" cx="84.001" cy="210" gradientUnits="userSpaceOnUse" r="8" xlink:href="#a"/>
  <radialGradient id="d" cx="84.001" cy="250" gradientUnits="userSpaceOnUse" r="8" xlink:href="#a"/>
  <radialGradient id="c" cx="108.002" cy="272" gradientUnits="userSpaceOnUse" r="12" xlink:href="#a"/>
  <radialGradient id="b" cx="108.002" cy="184" gradientUnits="userSpaceOnUse" r="12" xlink:href="#a"/>
  <path d="m141.84323 74c-70.59344 0-78.18921 7.250835-77.84323 77.98706v146.01294 146.01294c-.34598 70.73623 7.24979 77.98706 77.84323 77.98706h292.31354c70.59344 0 79.78033-7.27652 77.84323-77.98706v-146.01294-146.01294c0-70.737067-7.24979-77.98706-77.84323-77.98706z" filter="url(#filter4346)" opacity=".1" transform="matrix(.5 0 0 .5 -14.116488 -20.825537)"/>
  <path d="m141.84323 74c-70.59344 0-78.18921 7.250835-77.84323 77.98706v146.01294 146.01294c-.34598 70.73623 7.24979 77.98706 77.84323 77.98706h292.31354c70.59344 0 79.78033-7.27652 77.84323-77.98706v-146.01294-146.01294c0-70.737067-7.24979-77.98706-77.84323-77.98706z" fill="url(#linearGradient4358)" filter="url(#filter4380)" opacity=".3" transform="matrix(.5 0 0 .5 -14.116488 -20.825235)"/>
  <path d="m55.695112 13.174464c-36.098811 0-39.983003 3.690159-39.806081 39.689839v74.310167 74.31016c-.176922 35.99969 3.70727 39.68984 39.806081 39.68984h148.387318c36.09881 0 40.77464-3.70276 39.80608-39.68984v-74.31016-74.310167c0-36.00011-3.70727-39.689839-39.80608-39.689839z" opacity=".2"/>
  <path d="m202.95649 15.174464c35.29673 0 39.09461 3.625419 38.92162 38.993529v73.006477 73.00647c.17299 35.36812-3.62489 38.99353-38.92162 38.99353h-146.156758c-35.296716 0-38.921616-3.625-38.921616-38.99353v-73.00647-73.006477c0-35.36853 3.6249-38.993529 38.921616-38.993529z" fill="#4d4d4d"/>
  <path d="m56.805392 15.174464c-35.296728 0-39.09487 3.626029-38.92188 38.994139v2c-.17299-35.36811 3.625152-38.99414 38.92188-38.99414h146.156238c35.29673 0 38.92188 3.62561 38.92188 38.99414v-2c0-35.36853-3.62515-38.994139-38.92188-38.994139z" fill="#fff" opacity=".3"/>
  <path d="m56.810792 239.17447c-35.296731 0-39.094875-3.62603-38.921885-38.99414v-2c-.17299 35.36811 3.625154 38.99414 38.921885 38.99414h146.156238c35.29673 0 38.92188-3.62561 38.92188-38.99414v2c0 35.36853-3.62515 38.99414-38.92188 38.99414z" opacity=".2"/>
  <g transform="matrix(1.754386 0 0 1.754386 17.6773 -285.10624)">
    <path d="m22.352 194.352h82.687v82.687h-82.687z" fill="none"/>
    <g fill="none" stroke="#f6f5f4" stroke-width="8">
      <path d="m84 256 24 24m-24-64 24-24m-64 64-24 24m24-64-24-24m24 24h40v40h-40z"/>
      <path d="m20 192h88v88h-88z"/>
    </g>
    <path d="m98.5 194v2h-69v-2z" fill="#d5d3cf"/>
    <path d="m120 192c0 6.627-5.373 12-12 12-1.85 0-3.222-.095-5.165-1.166-1.092-1.726-3.55-4.584-5.668-5.666-1.071-1.944-1.167-3.318-1.167-5.168 0-6.627 5.373-12 12-12s12 5.373 12 12z" fill="#d5d3cf"/>
    <path d="m110 203h2v69h-2z" fill="#d5d3cf"/>
    <circle cx="108" cy="280" fill="#d5d3cf" r="12"/>
    <path d="m79 258v2h-30v-2zm20.604 16.425-1.414 1.415-15-15 1.415-1.415zm3.454-74.632 1.414 1.414-15 15-1.414-1.414z" fill="#d5d3cf"/>
    <circle cx="108" cy="190" fill="url(#b)" r="12"/>
    <path d="m86 222h2v26h-2zm-7-4v2h-30v-2z" fill="#d5d3cf"/>
    <circle cx="84" cy="216" fill="#d5d3cf" r="8"/>
    <path d="m98.5 282v2h-69v-2z" fill="#d5d3cf"/>
    <circle cx="108" cy="278" fill="url(#c)" r="12"/>
    <path d="m92 256c0 .666 0 1-.235 1.932-1.165.59-4.765 4.542-5.787 5.822-.502.246-1.295.246-1.978.246a8 8 0 1 1 8-8z" fill="#d5d3cf"/>
    <circle cx="84" cy="254" fill="url(#d)" r="8"/>
    <circle cx="84" cy="214" fill="url(#e)" r="8"/>
    <g fill="#d5d3cf">
      <path d="m22 203h2v69h-2z"/>
      <circle cx="20" cy="280" r="12"/>
      <path d="m46 222h2v26h-2z"/>
      <circle cx="44" cy="216" r="8"/>
      <path d="m43.586 259.586 1.414 1.414-15 15-1.414-1.414z"/>
      <path d="m7.912 192c0 6.627 5.372 12 12 12 1.849 0 3.222-.095 5.165-1.166 1.092-1.726 3.55-4.584 5.668-5.666 1.071-1.944 1.167-3.318 1.167-5.168 0-6.627-5.373-12-12-12-6.628 0-12 5.373-12 12z"/>
      <path d="m40.077 214.953-1.414 1.415-15-15 1.415-1.414z"/>
    </g>
    <circle cx="20" cy="190" fill="url(#f)" r="12"/>
    <circle cx="20" cy="278" fill="url(#g)" r="12"/>
    <circle cx="44" cy="214" fill="url(#h)" r="8"/>
    <path d="m36 256c0 .666 0 1 .235 1.932 1.165.59 4.765 4.542 5.787 5.822.502.246 1.295.246 1.978.246a8 8 0 1 0 -8-8z" fill="#d5d3cf"/>
    <circle cx="44" cy="254" fill="url(#i)" r="8"/>
  </g>
</svg>

<?xml version="1.0" encoding="UTF-8" standalone="no"?>
<svg
   xmlns:dc="http://purl.org/dc/elements/1.1/"
   xmlns:cc="http://creativecommons.org/ns#"
   xmlns:rdf="http://www.w3.org/1999/02/22-rdf-syntax-ns#"
   xmlns:svg="http://www.w3.org/2000/svg"
   xmlns="http://www.w3.org/2000/svg"
   xmlns:xlink="http://www.w3.org/1999/xlink"
   xmlns:sodipodi="http://sodipodi.sourceforge.net/DTD/sodipodi-0.dtd"
   xmlns:inkscape="http://www.inkscape.org/namespaces/inkscape"
   style="enable-background:new"
   width="256"
   height="256"
   version="1.0"
   viewBox="0 0 256 256"
   id="svg47"
   sodipodi:docname="W.svg"
   inkscape:version="0.92.4 (5da689c313, 2019-01-14)">
  <metadata
     id="metadata51">
    <rdf:RDF>
      <cc:Work
         rdf:about="">
        <dc:format>image/svg+xml</dc:format>
        <dc:type
           rdf:resource="http://purl.org/dc/dcmitype/StillImage" />
        <dc:title>
  Adwaita Icon Template
 </dc:title>
      </cc:Work>
    </rdf:RDF>
  </metadata>
  <sodipodi:namedview
     pagecolor="#ffffff"
     bordercolor="#666666"
     borderopacity="1"
     objecttolerance="10"
     gridtolerance="10"
     guidetolerance="10"
     inkscape:pageopacity="0"
     inkscape:pageshadow="2"
     inkscape:window-width="1920"
     inkscape:window-height="1016"
     id="namedview49"
     showgrid="false"
     inkscape:zoom="3.4425878"
     inkscape:cx="130.6099"
     inkscape:cy="126.92923"
     inkscape:window-x="0"
     inkscape:window-y="27"
     inkscape:window-maximized="1"
     inkscape:current-layer="svg47" />
  <title
     id="title4162">
  Adwaita Icon Template
 </title>
  <defs
     id="defs27">
    <linearGradient
       id="linearGradient1115">
      <stop
         id="stop1103"
         offset="0"
         style="stop-color:#d5d3cf" />
      <stop
         style="stop-color:#e3e2df"
         id="stop1105"
         offset=".038" />
      <stop
         style="stop-color:#c0bfbc"
         id="stop1107"
         offset=".077" />
      <stop
         style="stop-color:#c0bfbc"
         id="stop1109"
         offset=".923" />
      <stop
         style="stop-color:#e3e2df"
         id="stop1111"
         offset=".962" />
      <stop
         id="stop1113"
         offset="1"
         style="stop-color:#d5d3cf" />
    </linearGradient>
    <linearGradient
       id="linearGradient6058">
      <stop
         style="stop-color:#ffffff"
         id="stop6054"
         offset="0" />
      <stop
         style="stop-color:#f6f5f4"
         id="stop6056"
         offset="1" />
    </linearGradient>
    <linearGradient
       id="paint3_linear-2-6-5"
       x2="1"
       gradientTransform="matrix(0,6,-12,0,-64,209.99687)"
       gradientUnits="userSpaceOnUse">
      <stop
         id="stop91-0-7-4"
         stop-color="#C01C27" />
      <stop
         id="stop93-2-5-7"
         offset="1"
         stop-color="#E01B24" />
    </linearGradient>
    <linearGradient
       id="linearGradient1097"
       x1="43.844"
       x2="-60"
       y1="234"
       y2="234"
       gradientTransform="matrix(1.0015061,0,0,0.99993452,72.09037,56.015192)"
       gradientUnits="userSpaceOnUse"
       xlink:href="#linearGradient1115" />
    <radialGradient
       id="radialGradient1099"
       cx="-24.239"
       cy="225.596"
       r="24"
       fx="-24.239"
       fy="225.596"
       gradientTransform="matrix(1.757743,-9.5621778e-8,3.7652438e-8,1.9495846,106.60563,-336.54495)"
       gradientUnits="userSpaceOnUse"
       xlink:href="#linearGradient6058" />
    <linearGradient
       id="linearGradient1383"
       x2="1"
       gradientTransform="matrix(0,6,-12,0,-264,209.99687)"
       gradientUnits="userSpaceOnUse"
       xlink:href="#paint3_linear-2-6-5" />
    <linearGradient
       id="linearGradient4358"
       x1="88"
       x2="488"
       y1="88"
       y2="488"
       gradientUnits="userSpaceOnUse"
       xlink:href="#linearGradient4360" />
    <linearGradient
       id="linearGradient4360">
      <stop
         id="stop4362"
         offset="0"
         style="stop-color:#000000;stop-opacity:0.58823532" />
      <stop
         id="stop4366"
         offset="1"
         style="stop-color:#000000;stop-opacity:0.20555556" />
    </linearGradient>
    <filter
       style="color-interpolation-filters:sRGB"
       id="filter4380"
       width="1.106"
       height="1.088"
       x="-.05"
       y="-.04">
      <feGaussianBlur
         id="feGaussianBlur4382"
         stdDeviation="8.48" />
    </filter>
    <filter
       style="color-interpolation-filters:sRGB"
       id="filter4346"
       width="1.026"
       height="1.022"
       x="-.01"
       y="-.01">
      <feGaussianBlur
         id="feGaussianBlur4348"
         stdDeviation="2.12" />
    </filter>
    <linearGradient
       gradientUnits="userSpaceOnUse"
       y2="44"
       y1="44"
       x2="464"
       x1="48"
       id="linearGradient965">
      <stop
         style="stop-color:#77767b"
         offset="0"
         id="stop989" />
      <stop
         style="stop-color:#c0bfbc"
         offset=".05"
         id="stop991" />
      <stop
         style="stop-color:#9a9996"
         offset=".1"
         id="stop993" />
      <stop
         style="stop-color:#9a9996"
         offset=".9"
         id="stop995" />
      <stop
         style="stop-color:#c0bfbc"
         offset=".95"
         id="stop997" />
      <stop
         style="stop-color:#77767b"
         offset="1"
         id="stop999" />
    </linearGradient>
    <radialGradient
       gradientUnits="userSpaceOnUse"
       gradientTransform="matrix(-4.7273,7.9359e-7,-3.0301e-7,-1.6364,238.55,49.766)"
       r="44"
       cy="194.19"
       cx="64"
       id="radialGradient1030">
      <stop
         style="stop-color:#fff"
         offset="0"
         id="stop1016" />
      <stop
         style="stop-color:#fff;stop-opacity:.094118"
         offset="1"
         id="stop1018" />
    </radialGradient>
    <linearGradient
       gradientUnits="userSpaceOnUse"
       y2="269.14"
       y1="245.4"
       x2="70.347"
       x1="70.347"
       id="linearGradient1950">
      <stop
         style="stop-color:#2d2839"
         offset="0"
         id="stop1944" />
      <stop
         style="stop-color:#282433"
         offset="1"
         id="stop1946" />
    </linearGradient>
    <linearGradient
       xlink:href="#linearGradient916"
       gradientUnits="userSpaceOnUse"
       y2="210.694"
       y1="210.694"
       x2="21.425"
       x1="252.122"
       id="linearGradient918" />
    <linearGradient
       id="linearGradient916">
      <stop
         offset="0"
         id="stop912"
         style="stop-color:#000000" />
      <stop
         offset="1"
         id="stop914"
         style="stop-color:#000000;stop-opacity:0" />
    </linearGradient>
    <filter
       y="-.07"
       x="-.05"
       height="1.143"
       width="1.103"
       id="filter920"
       style="color-interpolation-filters:sRGB">
      <feGaussianBlur
         stdDeviation="3.138"
         id="feGaussianBlur922" />
    </filter>
    <linearGradient
       xlink:href="#linearGradient4360-7"
       gradientUnits="userSpaceOnUse"
       gradientTransform="rotate(-90,287.9946,298)"
       y2="488"
       y1="88"
       x2="488"
       x1="88"
       id="linearGradient4358-6" />
    <linearGradient
       id="linearGradient4360-7">
      <stop
         style="stop-color:#000000;stop-opacity:0.58823532"
         offset="0"
         id="stop4362-5" />
      <stop
         offset=".88"
         id="stop4364"
         style="stop-color:#000000;stop-opacity:0" />
      <stop
         style="stop-color:#000000"
         offset="1"
         id="stop4366-3" />
    </linearGradient>
    <filter
       y="-.04"
       x="-.05"
       height="1.088"
       width="1.106"
       id="filter4380-5"
       style="color-interpolation-filters:sRGB">
      <feGaussianBlur
         stdDeviation="8.48"
         id="feGaussianBlur4382-6" />
    </filter>
    <filter
       y="-.01"
       x="-.01"
       height="1.022"
       width="1.026"
       id="filter4346-2"
       style="color-interpolation-filters:sRGB">
      <feGaussianBlur
         stdDeviation="2.12"
         id="feGaussianBlur4348-9" />
    </filter>
    <linearGradient
       id="a">
      <stop
         id="stop2"
         stop-color="#fff"
         offset="0" />
      <stop
         id="stop4"
         stop-color="#fff"
         offset=".4" />
      <stop
         id="stop6"
         stop-color="#f6f5f4"
         offset="1" />
    </linearGradient>
    <radialGradient
       r="2"
       fy="222.988"
       fx="134.2"
       cy="222.988"
       cx="134.2"
       gradientTransform="matrix(4,0,0,4,-492.799,-641.952)"
       gradientUnits="userSpaceOnUse"
       id="i"
       xlink:href="#a" />
    <radialGradient
       r="2"
       fy="222.988"
       fx="134.2"
       cy="222.988"
       cx="134.2"
       gradientTransform="matrix(4,0,0,4,-492.799,-681.952)"
       gradientUnits="userSpaceOnUse"
       id="h"
       xlink:href="#a" />
    <radialGradient
       r="2"
       fy="222.988"
       fx="134.2"
       cy="222.988"
       cx="134.2"
       gradientTransform="matrix(6,0,0,6,-785.198,-1065.928)"
       gradientUnits="userSpaceOnUse"
       id="g"
       xlink:href="#a" />
    <radialGradient
       gradientTransform="matrix(6,0,0,6,-785.198,-1153.928)"
       gradientUnits="userSpaceOnUse"
       r="2"
       fy="222.988"
       fx="134.2"
       cy="222.988"
       cx="134.2"
       id="f"
       xlink:href="#a" />
    <radialGradient
       r="2"
       fy="222.988"
       fx="134.2"
       cy="222.988"
       cx="134.2"
       gradientTransform="matrix(4,0,0,4,-452.799,-681.952)"
       gradientUnits="userSpaceOnUse"
       id="e"
       xlink:href="#a" />
    <radialGradient
       r="2"
       fy="222.988"
       fx="134.2"
       cy="222.988"
       cx="134.2"
       gradientTransform="matrix(4,0,0,4,-452.799,-641.952)"
       gradientUnits="userSpaceOnUse"
       id="d"
       xlink:href="#a" />
    <radialGradient
       r="2"
       fy="222.988"
       fx="134.2"
       cy="222.988"
       cx="134.2"
       gradientTransform="matrix(6,0,0,6,-697.198,-1065.928)"
       gradientUnits="userSpaceOnUse"
       id="c"
       xlink:href="#a" />
    <radialGradient
       r="2"
       fy="222.988"
       fx="134.2"
       cy="222.988"
       cx="134.2"
       gradientTransform="matrix(6,0,0,6,-697.198,-1153.928)"
       gradientUnits="userSpaceOnUse"
       id="b"
       xlink:href="#a" />
  </defs>
  <path
     style="opacity:0.1;filter:url(#filter4346)"
     d="M 141.84323,74 C 71.24979,74 63.65402,81.250835 64,151.98706 V 298 444.01294 C 63.65402,514.74917 71.24979,522 141.84323,522 H 434.15677 C 504.75021,522 513.9371,514.72348 512,444.01294 V 298 151.98706 C 512,81.249993 504.75021,74 434.15677,74 Z"
     transform="matrix(0.5,0,0,0.5,-14.116488,-20.825537)"
     id="path29" />
  <path
     d="M 141.84323,74 C 71.24979,74 63.65402,81.250835 64,151.98706 V 298 444.01294 C 63.65402,514.74917 71.24979,522 141.84323,522 H 434.15677 C 504.75021,522 513.9371,514.72348 512,444.01294 V 298 151.98706 C 512,81.249993 504.75021,74 434.15677,74 Z"
     transform="matrix(0.5,0,0,0.5,-14.116488,-20.825235)"
     style="opacity:0.3;fill:url(#linearGradient4358);filter:url(#filter4380)"
     id="path31" />
  <path
     style="opacity:0.2"
     d="m 55.695112,13.174464 c -36.098811,0 -39.983003,3.690159 -39.806081,39.689839 v 74.310167 74.31016 c -0.176922,35.99969 3.70727,39.68984 39.806081,39.68984 H 204.08243 c 36.09881,0 40.77464,-3.70276 39.80608,-39.68984 V 127.17447 52.864303 c 0,-36.00011 -3.70727,-39.689839 -39.80608,-39.689839 z"
     id="path33" />
  <path
     style="fill:#4d4d4d;fill-opacity:1"
     d="m 202.95649,15.174464 c 35.29673,0 39.09461,3.625419 38.92162,38.993529 v 73.006477 73.00647 c 0.17299,35.36812 -3.62489,38.99353 -38.92162,38.99353 H 56.799732 c -35.296716,0 -38.921616,-3.625 -38.921616,-38.99353 V 127.17447 54.167993 c 0,-35.36853 3.6249,-38.993529 38.921616,-38.993529 z"
     id="path35" />
  <path
     style="opacity:0.3;fill:#ffffff"
     d="m 56.805392,15.174464 c -35.296728,0 -39.09487,3.626029 -38.92188,38.994139 v 2 c -0.17299,-35.36811 3.625152,-38.99414 38.92188,-38.99414 H 202.96163 c 35.29673,0 38.92188,3.62561 38.92188,38.99414 v -2 c 0,-35.36853 -3.62515,-38.994139 -38.92188,-38.994139 z"
     id="path37" />
  <path
     style="opacity:0.2"
     d="m 56.810792,239.17447 c -35.296731,0 -39.094875,-3.62603 -38.921885,-38.99414 v -2 c -0.17299,35.36811 3.625154,38.99414 38.921885,38.99414 H 202.96703 c 35.29673,0 38.92188,-3.62561 38.92188,-38.99414 v 2 c 0,35.36853 -3.62515,38.99414 -38.92188,38.99414 z"
     id="path39" />
  <g
     id="g77"
     transform="matrix(1.754386,0,0,1.754386,17.6773,-285.10624)">
    <path
       id="path19"
       overflow="visible"
       font-weight="400"
       d="m 22.352,194.352 h 82.687 v 82.687 H 22.352 Z"
       style="color:#000000;font-weight:400;line-height:normal;font-family:sans-serif;font-variant-ligatures:normal;font-variant-position:normal;font-variant-caps:normal;font-variant-numeric:normal;font-variant-alternates:normal;font-feature-settings:normal;text-indent:0;text-align:start;text-decoration:none;text-decoration-line:none;text-decoration-style:solid;text-decoration-color:#000000;text-transform:none;text-orientation:mixed;white-space:normal;shape-padding:0;overflow:visible;isolation:auto;mix-blend-mode:normal;solid-color:#000000;solid-opacity:1;fill:none;marker:none"
       inkscape:connector-curvature="0" />
    <g
       id="g25"
       style="color:#000000;fill:none;stroke:#f6f5f4;stroke-width:8">
      <path
         id="path21"
         overflow="visible"
         d="m 84,256 24,24 M 84,216 108,192 M 44,256 20,280 M 44,216 20,192 m 24,24 h 40 v 40 H 44 Z"
         style="overflow:visible;marker:none"
         inkscape:connector-curvature="0" />
      <path
         id="path23"
         d="m 20,192 h 88 v 88 H 20 Z"
         overflow="visible"
         style="overflow:visible;marker:none"
         inkscape:connector-curvature="0" />
    </g>
    <path
       id="path27"
       d="m 98.5,194 v 2 h -69 v -2 z"
       style="fill:#d5d3cf;marker:none"
       inkscape:connector-curvature="0" />
    <path
       id="path29-1"
       overflow="visible"
       d="m 120,192 c 0,6.627 -5.373,12 -12,12 -1.85,0 -3.222,-0.095 -5.165,-1.166 -1.092,-1.726 -3.55,-4.584 -5.668,-5.666 C 96.096,195.224 96,193.85 96,192 c 0,-6.627 5.373,-12 12,-12 6.627,0 12,5.373 12,12 z"
       style="color:#000000;overflow:visible;fill:#d5d3cf;marker:none"
       inkscape:connector-curvature="0" />
    <path
       id="path31-2"
       d="m 110,203 h 2 v 69 h -2 z"
       style="fill:#d5d3cf;marker:none"
       inkscape:connector-curvature="0" />
    <circle
       id="circle33"
       overflow="visible"
       r="12"
       cy="280"
       cx="108"
       style="color:#000000;overflow:visible;fill:#d5d3cf;marker:none" />
    <path
       id="path35-7"
       d="m 79,258 v 2 H 49 v -2 z m 20.604,16.425 -1.414,1.415 -15,-15 1.415,-1.415 z m 3.454,-74.632 1.414,1.414 -15,15 -1.414,-1.414 z"
       style="fill:#d5d3cf;marker:none"
       inkscape:connector-curvature="0" />
    <circle
       id="circle37"
       overflow="visible"
       r="12"
       cy="190"
       cx="108"
       style="color:#000000;overflow:visible;fill:url(#b);marker:none" />
    <path
       id="path39-0"
       d="m 86,222 h 2 v 26 h -2 z m -7,-4 v 2 H 49 v -2 z"
       style="fill:#d5d3cf;marker:none"
       inkscape:connector-curvature="0" />
    <circle
       id="circle41"
       overflow="visible"
       r="8"
       cy="216"
       cx="84"
       style="color:#000000;overflow:visible;fill:#d5d3cf;marker:none" />
    <path
       id="path43"
       d="m 98.5,282 v 2 h -69 v -2 z"
       style="fill:#d5d3cf;marker:none"
       inkscape:connector-curvature="0" />
    <circle
       id="circle45"
       overflow="visible"
       style="color:#000000;overflow:visible;fill:url(#c);marker:none"
       cx="108"
       cy="278"
       r="12" />
    <path
       id="path47"
       overflow="visible"
       d="m 92,256 c 0,0.666 0,1 -0.235,1.932 -1.165,0.59 -4.765,4.542 -5.787,5.822 C 85.476,264 84.683,264 84,264 a 8,8 0 1 1 8,-8 z"
       style="color:#000000;overflow:visible;fill:#d5d3cf;marker:none"
       inkscape:connector-curvature="0" />
    <circle
       id="circle49"
       overflow="visible"
       r="8"
       cy="254"
       cx="84"
       style="color:#000000;overflow:visible;fill:url(#d);marker:none" />
    <circle
       id="circle51"
       overflow="visible"
       style="color:#000000;overflow:visible;fill:url(#e);marker:none"
       cx="84"
       cy="214"
       r="8" />
    <path
       id="path53"
       d="m 22,203 h 2 v 69 h -2 z"
       style="fill:#d5d3cf;marker:none"
       inkscape:connector-curvature="0" />
    <circle
       id="circle55"
       overflow="visible"
       style="color:#000000;overflow:visible;fill:#d5d3cf;marker:none"
       cx="20"
       cy="280"
       r="12" />
    <path
       id="path57"
       d="m 46,222 h 2 v 26 h -2 z"
       style="fill:#d5d3cf;marker:none"
       inkscape:connector-curvature="0" />
    <circle
       id="circle59"
       overflow="visible"
       style="color:#000000;overflow:visible;fill:#d5d3cf;marker:none"
       cx="44"
       cy="216"
       r="8" />
    <path
       id="path61"
       d="M 43.586,259.586 45,261 30,276 28.586,274.586 Z"
       style="fill:#d5d3cf;marker:none"
       inkscape:connector-curvature="0" />
    <path
       id="path63"
       overflow="visible"
       style="color:#000000;overflow:visible;fill:#d5d3cf;marker:none"
       d="m 7.912,192 c 0,6.627 5.372,12 12,12 1.849,0 3.222,-0.095 5.165,-1.166 1.092,-1.726 3.55,-4.584 5.668,-5.666 1.071,-1.944 1.167,-3.318 1.167,-5.168 0,-6.627 -5.373,-12 -12,-12 -6.628,0 -12,5.373 -12,12 z"
       inkscape:connector-curvature="0" />
    <path
       id="path65"
       d="m 40.077,214.953 -1.414,1.415 -15,-15 1.415,-1.414 z"
       style="fill:#d5d3cf;marker:none"
       inkscape:connector-curvature="0" />
    <circle
       id="circle67"
       overflow="visible"
       style="color:#000000;overflow:visible;fill:url(#f);marker:none"
       cx="20"
       cy="190"
       r="12" />
    <circle
       id="circle69"
       overflow="visible"
       r="12"
       cy="278"
       cx="20"
       style="color:#000000;overflow:visible;fill:url(#g);marker:none" />
    <circle
       id="circle71"
       overflow="visible"
       r="8"
       cy="214"
       cx="44"
       style="color:#000000;overflow:visible;fill:url(#h);marker:none" />
    <path
       id="path73"
       overflow="visible"
       style="color:#000000;overflow:visible;fill:#d5d3cf;marker:none"
       d="m 36,256 c 0,0.666 0,1 0.235,1.932 1.165,0.59 4.765,4.542 5.787,5.822 C 42.524,264 43.317,264 44,264 a 8,8 0 1 0 -8,-8 z"
       inkscape:connector-curvature="0" />
    <circle
       id="circle75"
       overflow="visible"
       style="color:#000000;overflow:visible;fill:url(#i);marker:none"
       cx="44"
       cy="254"
       r="8" />
  </g>
</svg>
